X:1
T:Come esser puo
T:Come esser puo
T:Claudio Saracini
T:Source : Le terze Musische per cantar e sonar---Venetia---A.Vincenti---1620. Editor : André Vierendeels (13/12/15).
T:Notes : Original clefs : C1, F4 Editorial accidentals above the staff Figures above the BC are notated in original print The original print was damaged (perhaps during WWII), necessitating an editorial addendum mm 30-31
C:Claudio Saracini
%%score 1 2
L:1/8
Q:1/4=80
M:4/4
K:F
V:1 treble nm="Soprano" snm="S"
V:2 bass nm="BC" snm="BC"
V:1
 d6 GA | B4 z ccc | c8 | c4 z2 d2 | ^c8 | ^c8 | f4 edcB | A4 A4 | c6 dd | d4 z EFG | E6 E2 | E8 | %12
w: Co- m'es- ser|puo che sen- za|vi-|ta io|vi-|va,|se gia ver- sar' il|san- gue,|io mi- ro'il|cor de la mia|vi- ta'es-|san-|
 D8 | B6 GG | G4 G4 | z GA=B c3 d | =B4 c4 | z dd d3 FG | A8 | c6 FE | F8 | G8 | z ABc dBcd | %23
w: gue,|e se duo|col- pi|in u- na sol fe-|ri- ta,|e de l'a- ma'e del|cor|m'han fat- to|pri-|vo,|com' es- ser puo che sen- za|
 _e6 d2 | c8 | B8 | z fed cAGF | E6 A2 | G8 | F8 | z ABc dBcd | ^F6 B2 | A8 | G8 |] %34
w: vi- ta'io|vi-|va,|com' es- ser puo che sen- za|vi- ta'io|vi-|va,|com' es- ser puo che sen- za|vi- ta'io|vi-|va.|
V:2
 G,8 | G,,4 F,,4 | F,,8 | F,,4 B,,4 |"^#" A,,8- | A,,8 | B,,4 C,D,E,G, | ^F,4 F,4 | F,,4 B,,4- | %9
 B,,4 A,,4- | A,,4 G,,2 A,,2 | B,,2 G,,2 A,,4 | D,8 |"^b" G,4 _E,4 | _E,8 | _E,2 F,G, _A,3 F, | %16
 G,4 C,4 | B,,6 D,E, | F,8 | F,,4 D,4- | D,8 | C,8 | F,,4 B,,4 | _E,4 F,4 | F,,8 | B,,8 | D,4 F,4 | %27
 C,8 | C,8 | F,,8 |"^b" F,,4 G,,4 | D,8- | D,8 | G,,8 |] %34

